symbolic/64x64/apps/laborejo.svg

<svg width="64" height="64" version="1.1" xmlns="http://www.w3.org/2000/svg">
 <path d="m29.199219 5c-2.326688 0-4.199219 1.8724187-4.199219 4.1992188v33.5c0 1.4-6 9.900781-6 11.300781 0 4.2 7 7 7 7l-1-7 6.316406-1.578125 1.683594 7.578125s3.776045-3.786601 3.208984-8.802734l0.791016-0.197266s-4-8.299219-4-9.699219v-14.300781l4 3.099609s7.300444 4.141106 7.199219 8.09961c-0.199457 7.8-7.199219 8.800781-7.199219 8.800781s10.000679-7.81e-4 10-8.800781c-1.57e-4 -2.041539 0.016578-3.797714-0.957031-5.650391 0.55181-1.021695 0.957031-2.677869 0.957031-5.349609 0-4.2 0.308148-7.493338-8.400391-12.59961-4.269712-2.503556-5.599609-5.599609-5.599609-5.599609l-0.013672 0.0214844c-0.074793-2.241737-1.521385-4.0214844-3.787109-4.0214844zm3.800781 11 4.199219 2.800781s7 4.43864 7 8.398438c0 1.145411-0.04003 2.039757-0.09375 2.832031-1.267115-1.246187-3.080065-2.591677-5.705078-4.130859-4.269712-2.503556-5.400391-5.900391-5.400391-5.900391v-4z" style="opacity:.2"/>
 <path d="m 37,46 c 0,0 7,-1 7.199457,-8.8 0.101225,-3.958504 -7.199424,-8.1 -7.199424,-8.1 L 33,26 30.200136,23.2 33,19 c 0,0 1.130254,3.396444 5.399966,5.9 8.708539,5.106272 8.599031,8.1 8.599355,12.3 C 47,46 37,46 37,46 Z" style="fill:#4f4f4f"/>
 <path d="m31 50 2 9s4.399931-4.4 3-10c-2.799865 0-5 1-5 1z" style="fill:#c2c2c2"/>
 <path d="m43 33s1.199457 0.2 1.199457-6.8c0-3.959798-6.999661-8.4-6.999661-8.4l-4.199796-2.8-2.799864-2.8 2.799864-4.2s1.330017 3.096444 5.599729 5.6c8.708539 5.106272 8.399592 8.4 8.399592 12.6 0 8.4-3.999321 6.8-3.999321 6.8z" style="fill:#4f4f4f"/>
 <path d="m33 8-2.800781 4.199219 0.40039 0.40039 2.400391-3.599609s1.329897 3.096053 5.599609 5.599609c8.043228 4.716165 8.391657 7.894316 8.398438 11.660157 5.6e-5 -0.02207 0.001953-0.038337 0.001953-0.060547 0-4.2 0.308148-7.493338-8.400391-12.59961-4.269712-2.503556-5.599609-5.599609-5.599609-5.599609zm0 11-2.800781 4.199219 0.40039 0.40039 2.400391-3.599609s1.130679 3.396835 5.400391 5.900391c2.625013 1.539182 4.437963 2.884672 5.705078 4.130859 0.05372-0.792274 0.09375-1.68662 0.09375-2.832031 0-0.04796-0.013596-0.09644-0.015625-0.144531-0.01455 0.736933-0.039241 1.40309-0.078125 1.976562-1.267115-1.246187-3.080065-2.591677-5.705078-4.130859-4.269712-2.503556-5.400391-5.900391-5.400391-5.900391zm13.265625 13.029297c-0.073405 0.177073-0.142221 0.370602-0.222656 0.519531 0.838779 1.596107 0.938425 3.131094 0.951172 4.828125 9.55e-4 -0.06033 0.005864-0.116557 0.005859-0.177734-1.43e-4 -1.864193 0.004485-3.490864-0.734375-5.169922zm-2.109375 5.683594c-0.495636 7.314179-7.15625 8.287109-7.15625 8.287109s1.724008-0.009625 3.736328-0.636719c1.703416-1.252089 3.367137-3.419489 3.462891-7.164062 0.004135-0.161715-0.023401-0.324299-0.042969-0.486328z" style="fill:#ffffff;opacity:.1"/>
 <path d="m36 49c-2.799865 0-5 1-5 1l0.525391 2.369141 4.74414-1.185547c-0.003281-0.701936-0.081258-1.430466-0.269531-2.183594z" style="opacity:.1"/>
 <path d="m29.199525 4c-2.326688 0-4.199797 1.8732-4.199797 4.2v33.5c0 1.4-5.999728 9.9-5.999728 11.3 0 4.2 7 7 7 7l-1-7 12-3s-4-8.3-4-9.7v-32.1c0-2.3268-1.473787-4.2-3.800475-4.2z" style="fill:#e4e4e4"/>
</svg>

<svg width="64" height="64" xmlns="http://www.w3.org/2000/svg"><path d="M29.2 5A4.19 4.19 0 0 0 25 9.2v33.5c0 1.4-6 9.9-6 11.3 0 4.2 7 7 7 7l-1-7 6.316-1.578L33 60s3.776-3.787 3.209-8.803L37 51s-4-8.3-4-9.7V27l4 3.1s7.3 4.14 7.2 8.1C44 46 37 47 37 47s10 0 10-8.8c0-2.042.017-3.798-.957-5.651.552-1.022.957-2.678.957-5.35 0-4.2.308-7.493-8.4-12.6C34.33 12.097 33 9 33 9l-.014.021C32.912 6.78 31.465 5 29.2 5zM33 16l4.2 2.8s7 4.44 7 8.4c0 1.145-.04 2.039-.095 2.831-1.267-1.246-3.08-2.591-5.705-4.13C34.13 23.396 33 20 33 20v-4z" style="opacity:.2"/><path d="M37 46s7-1 7.2-8.8c.1-3.959-7.2-8.1-7.2-8.1L33 26l-2.8-2.8L33 19s1.13 3.396 5.4 5.9c8.709 5.106 8.599 8.1 8.6 12.3C47 46 37 46 37 46z" style="fill:#4f4f4f"/><path d="m31 50 2 9s4.4-4.4 3-10c-2.8 0-5 1-5 1z" style="fill:#c2c2c2"/><path d="M43 33s1.2.2 1.2-6.8c0-3.96-7-8.4-7-8.4L33 15l-2.8-2.8L33 8s1.33 3.096 5.6 5.6C47.308 18.706 47 22 47 26.2c0 8.4-4 6.8-4 6.8z" style="fill:#4f4f4f"/><path d="m33 8-2.8 4.2.4.4L33 9s1.33 3.096 5.6 5.6c8.043 4.716 8.391 7.894 8.398 11.66L47 26.2c0-4.2.308-7.494-8.4-12.6C34.33 11.096 33 8 33 8zm0 11-2.8 4.2.4.4L33 20s1.13 3.397 5.4 5.9c2.625 1.54 4.438 2.885 5.705 4.131.054-.792.094-1.686.094-2.832 0-.048-.013-.096-.015-.144-.015.737-.04 1.403-.079 1.976-1.267-1.246-3.08-2.591-5.705-4.13C34.13 22.396 33 19 33 19zm13.266 13.03c-.074.176-.143.37-.223.519.839 1.596.938 3.13.951 4.828.001-.06.006-.117.006-.178 0-1.864.004-3.49-.734-5.17zm-2.11 5.683C43.661 45.027 37 46 37 46s1.724-.01 3.736-.637c1.704-1.252 3.367-3.42 3.463-7.164.004-.161-.023-.324-.043-.486z" style="fill:#fff;opacity:.1"/><path d="M36 49c-2.8 0-5 1-5 1l.525 2.37 4.745-1.186A9.127 9.127 0 0 0 36 49z" style="opacity:.1"/><path d="M29.2 4A4.19 4.19 0 0 0 25 8.2v33.5c0 1.4-6 9.9-6 11.3 0 4.2 7 7 7 7l-1-7 12-3s-4-8.3-4-9.7V8.2C33 5.873 31.526 4 29.2 4z" style="fill:#e4e4e4"/></svg>
